apps/web/public/partners/mcp.svg

<svg width="180" height="180" viewBox="0 0 180 180" fill="none" xmlns="http://www.w3.org/2000/svg">
<g clip-path="url(#clip0_19_13)">
<path d="M18 84.8528L85.8822 16.9706C95.2548 7.59798 110.451 7.59798 119.823 16.9706V16.9706C129.196 26.3431 129.196 41.5391 119.823 50.9117L68.5581 102.177" stroke="black" stroke-width="12" stroke-linecap="round"/>
<path d="M69.2652 101.47L119.823 50.9117C129.196 41.5391 144.392 41.5391 153.765 50.9117L154.118 51.2652C163.491 60.6378 163.491 75.8338 154.118 85.2063L92.7248 146.6C89.6006 149.724 89.6006 154.789 92.7248 157.913L105.331 170.52" stroke="black" stroke-width="12" stroke-linecap="round"/>
<path d="M102.853 33.9411L52.6482 84.1457C43.2756 93.5183 43.2756 108.714 52.6482 118.087V118.087C62.0208 127.459 77.2167 127.459 86.5893 118.087L136.794 67.8822" stroke="black" stroke-width="12" stroke-linecap="round"/>
</g>
<defs>
<clipPath id="clip0_19_13">
<rect width="180" height="180" fill="white"/>
</clipPath>
</defs>
</svg>

<svg xmlns="http://www.w3.org/2000/svg" width="180" height="180" fill="none" viewBox="0 0 180 180"><g stroke="#000" stroke-linecap="round" stroke-width="12" clip-path="url(#a)"><path d="M18 84.853 85.882 16.97c9.373-9.373 24.569-9.373 33.941 0v0c9.373 9.372 9.373 24.568 0 33.94l-51.265 51.266m.707-.706 50.558-50.558c9.373-9.373 24.569-9.373 33.942 0l.353.353c9.373 9.373 9.373 24.569 0 33.941L92.725 146.6a8 8 0 0 0 0 11.313l12.606 12.607"/><path d="M102.853 33.941 52.648 84.146c-9.372 9.372-9.372 24.568 0 33.941v0c9.373 9.372 24.569 9.372 33.941 0l50.205-50.205"/></g><defs><clipPath id="a"><path fill="#fff" d="M0 0h180v180H0z"/></clipPath></defs></svg>
